icons/svg/announcement-active_8.svg

<?xml version="1.0" encoding="UTF-8"?>
<svg width="8px" height="8px" viewBox="0 0 8 8" version="1.1" xmlns="http://www.w3.org/2000/svg" xmlns:xlink="http://www.w3.org/1999/xlink">
    <!-- Generator: Sketch 59.1 (86144) - https://sketch.com -->
    <title>meetings/announcement-active_8</title>
    <desc>Created with Sketch.</desc>
    <g id="Icons-Webex" stroke="none" stroke-width="1" fill="none" fill-rule="evenodd">
        <g id="meetings/feedback-active_8" transform="translate(0.000000, 0.000000)" fill="#171B1F">
            <g id="feedback-active_8">
                <path d="M1.00101627,3.54709576 C1.00002144,3.26352872 1.144021,2.90982143 1.55501974,2.77354894 L2.00001838,2.62425039 L2.00001838,4.45390906 L1.56401971,4.31463056 C1.15202098,4.18336808 1.00302143,3.83066279 1.00101627,3.54709576 L1.00101627,3.54709576 Z M7.57800129,0.243489707 C7.30900212,0.0300629281 6.96300318,-0.048093357 6.6280042,0.0290609244 L1.23902071,1.82164546 C0.482023028,2.07314838 -0.00397548311,2.75350886 0,3.55310778 C0.00502448932,4.3537087 0.500022973,5.02805716 1.26002065,5.27154405 L2.18701781,5.56713513 L3.0370152,7.68637286 C3.11501496,7.88176357 3.30201439,8 3.50001378,8 C3.56201359,8 3.6260134,7.98897796 3.68701321,7.96392787 C3.94301243,7.8617235 4.06701205,7.57014043 3.96401236,7.31262549 L3.42301402,5.96192457 L6.62600421,6.9849703 C6.71200395,7.00400837 6.79800368,7.0140284 6.88400342,7.0140284 C7.13300266,7.0140284 7.37600191,6.9308621 7.5770013,6.77154352 C7.84600047,6.55711474 8,6.23747557 8,5.89178431 L8,1.12224691 C8,0.777557655 7.84700047,0.458920492 7.57800129,0.243489707 L7.57800129,0.243489707 Z" id="fill"></path>
            </g>
        </g>
    </g>
</svg>

<svg width="8" height="8" xmlns="http://www.w3.org/2000/svg"><path d="M1.001 3.547a.791.791 0 01.554-.773L2 2.624v1.83l-.436-.14a.792.792 0 01-.563-.767zM7.578.243a1.117 1.117 0 00-.95-.214L1.239 1.822A1.787 1.787 0 000 3.553c.005.8.5 1.475 1.26 1.719l.927.295.85 2.12a.498.498 0 00.65.277.5.5 0 00.277-.651l-.541-1.351 3.203 1.023a1.112 1.112 0 00.951-.213c.269-.215.423-.535.423-.88v-4.77C8 .778 7.847.46 7.578.243z" fill="#171B1F" fill-rule="evenodd"/></svg>
